X:1
T:Republic, CMD
T:Republic, CMD
T:William Pierson Merrill, 1912
T:Public Domain Courtesy of the Cyber Hymnal™
C:William Pierson Merrill, 1912
Z:Public Domain
Z:Courtesy of the Cyber Hymnal™
%%score ( 1 2 ) ( 3 4 )
L:1/8
Q:1/4=110
M:4/4
K:D
V:1 treble 
V:2 treble 
V:3 bass 
V:4 bass 
V:1
 [FA]2 | [FA]2 [DF]2 [FB]2 [DF]2 | A3 z G [DF]2 D2 | [DE]2 [DF]2 [DG]2 [GB]2 | [GA]6 [Gd]2 | %5
 [Gc]2 [EB]2 [FA]2 [FB]2 | c3 z E [CE]2 [CE]2 | [DF]2 [DA]2 [FA]2 [E^G]2 | [EA]6 [EA]2 | %9
 [DA]2 [F=c]2 [FB]2 [FA]2 | [FA]2 G2 [GB]2 [AB]2 | [^GB]2 [Gd]2 [Gc]2 [GB]2 | A6 [EA]2 | %13
 [Dd]2 [Dc]2 [FB]2 [FA]2 | [FA]2 G2 [GB]2 [Gd]2 | [Fd]>[FA] [FA]2 z2 [FA]2 | %16
 [CA]>[CF] [CF]4 [CE]2 | D6 |] %18
V:2
 x2 | x8 | E2 (E2 x D2) x2 | x8 | x8 | x8 | A2 B,2 x5 | x8 | x8 | x8 | x2 G2 x4 | x8 | A6 x2 | x8 | %14
 x2 G2 x4 | x8 | x8 | D6 |] %18
V:3
 [D,D]2 | [D,D]2 [D,A,]2 [B,,D]2 [B,,B,]2 | [A,,C]2 [C,A,]2 [D,A,]2 [F,A,]2 x | %3
 [G,B,]2 [F,B,]2 [E,B,]2 [D,D]2 | E6 [B,D]2 | [A,E]2 [G,C]2 [F,D]2 [F,^D]2 | %6
 [E,E]2 [D,^G,]2 [C,A,]2 [A,,A,]2 x | [D,A,]2 [F,A,]2 [B,,D]2 [E,D]2 | [A,,C]6 [G,C]2 | %9
 [F,D]2 [D,E]2 [D,D]2 [D,=C]2 | [G,=C]2 [G,B,]2 [G,D]2 [F,^D]2 | [E,E]2 [E,B,]2 [E,E]2 [E,D]2 | %12
 [A,C]6 [G,C]2 | [F,A,]2 [F,A,]2 [D,D]2 [D,=C]2 | [G,=C]2 [G,B,]2 [E,D]2 [E,B,]2 | %15
 A,>[A,D] [A,D]2 z2 [A,D]2 | [A,,A,]>[A,,A,] [A,,A,]4 [A,,G,]2 | [D,F,]6 |] %18
V:4
 x2 | x8 | x9 | x8 | (C,4 C2) x2 | x8 | x9 | x8 | x8 | x8 | x8 | x8 | x8 | x8 | x8 | A,3/2 x13/2 | %16
 x8 | x6 |] %18

